vendor/shopware/storefront/Resources/app/storefront/dist/assets/icon/default/editor-list-unordered.svg

<svg xmlns="http://www.w3.org/2000/svg" width="12" height="12" viewBox="0 0 12 12">
  <path fill="#758CA3" fill-rule="evenodd" d="M8,1 L11,1 C11.5522847,1 12,1.44771525 12,2 C12,2.55228475 11.5522847,3 11,3 L8,3 C7.44771525,3 7,2.55228475 7,2 C7,1.44771525 7.44771525,1 8,1 Z M9,5 L11,5 C11.5522847,5 12,5.44771525 12,6 C12,6.55228475 11.5522847,7 11,7 L9,7 C8.44771525,7 8,6.55228475 8,6 C8,5.44771525 8.44771525,5 9,5 Z M8,9 L11,9 C11.5522847,9 12,9.44771525 12,10 C12,10.5522847 11.5522847,11 11,11 L8,11 C7.44771525,11 7,10.5522847 7,10 C7,9.44771525 7.44771525,9 8,9 Z M3,9 C1.34314575,9 0,7.65685425 0,6 C0,4.34314575 1.34314575,3 3,3 C4.65685425,3 6,4.34314575 6,6 C6,7.65685425 4.65685425,9 3,9 Z M3,7 C3.55228475,7 4,6.55228475 4,6 C4,5.44771525 3.55228475,5 3,5 C2.44771525,5 2,5.44771525 2,6 C2,6.55228475 2.44771525,7 3,7 Z"/>
</svg>

<svg xmlns="http://www.w3.org/2000/svg" width="12" height="12" viewBox="0 0 12 12"><path fill="#758CA3" fill-rule="evenodd" d="M8 1h3c.5523 0 1 .4477 1 1s-.4477 1-1 1H8c-.5523 0-1-.4477-1-1s.4477-1 1-1zm1 4h2c.5523 0 1 .4477 1 1s-.4477 1-1 1H9c-.5523 0-1-.4477-1-1s.4477-1 1-1zM8 9h3c.5523 0 1 .4477 1 1s-.4477 1-1 1H8c-.5523 0-1-.4477-1-1s.4477-1 1-1zM3 9C1.3431 9 0 7.6569 0 6s1.3431-3 3-3 3 1.3431 3 3-1.3431 3-3 3zm0-2c.5523 0 1-.4477 1-1s-.4477-1-1-1-1 .4477-1 1 .4477 1 1 1z"/></svg>
